dist/img/facebook.svg

<svg width="11" height="20" viewBox="0 0 11 20" fill="none" xmlns="http://www.w3.org/2000/svg">
<path d="M10.0055 0.00400128L7.51173 0C4.71006 0 2.8995 1.8576 2.8995 4.73272V6.91482H0.392122C0.175455 6.91482 0 7.09047 0 7.30714V10.4688C0 10.6854 0.175655 10.8609 0.392122 10.8609H2.8995V18.8386C2.8995 19.0553 3.07495 19.2308 3.29162 19.2308H6.56304C6.77971 19.2308 6.95516 19.0551 6.95516 18.8386V10.8609H9.88687C10.1035 10.8609 10.279 10.6854 10.279 10.4688L10.2802 7.30714C10.2802 7.20311 10.2388 7.10348 10.1654 7.02986C10.0919 6.95623 9.9919 6.91482 9.88787 6.91482H6.95516V5.06502C6.95516 4.17594 7.16703 3.7246 8.32519 3.7246L10.0051 3.72399C10.2216 3.72399 10.397 3.54834 10.397 3.33187V0.396127C10.397 0.179858 10.2218 0.00440141 10.0055 0.00400128Z" fill="#707070"/>
</svg>

<svg width="11" height="20" fill="none" xmlns="http://www.w3.org/2000/svg"><path d="M10.005.004L7.512 0C4.71 0 2.9 1.858 2.9 4.733v2.182H.391A.392.392 0 000 7.307v3.162c0 .216.176.392.392.392H2.9v7.978c0 .216.175.392.392.392h3.271a.392.392 0 00.392-.392V10.86h2.932a.392.392 0 00.392-.392l.001-3.162a.393.393 0 00-.392-.392H6.955v-1.85c0-.89.212-1.34 1.37-1.34l1.68-.001a.392.392 0 00.392-.392V.396a.392.392 0 00-.392-.392z" fill="#707070"/></svg>
